X: 7
T: Muieira De Chantada
M: 6/8
L: 1/8
R: muieira
K: g minor
|: G2 D | 
G3 ABc | d3- d2 d | ded e2 d | d3 A3 |
A3 Bcd | e3- edc | ded cBA | B2 A G2 d |
G3 ABc | d3- dBc | d^cd g2 f | f3 e3 | 
g^fg a2 g | g3 d3 | ded cBA | G3- :|
K: G Major
|: g2 f | 
d2 e f2 d | e3 d2 c | A2 B c2 d | B2 G g2 f |
d2 e f2 d | efe d2 c | A2 B c2 d | G3- :|
|: G2 d |
f2 e ecA | e2 d dBG | d2 c A2 F | e2 d dBd |
f2 e ecA | e2 d dBG | d2 c A2 B | G3 :|
